X: 810
T: Ragtime Annie
C:Old-Time, Bluegrass
B: jims roots
M:C|
R: rag
Q: 1/4=100
K:D
V:1 
FE| "D"DFBF AFBF| DFBF A2FE| DEFG ABAF| "A"A2c2 c2cB|
    "A"ABcA B2cB| ABcA BAcB| ABcd egfe| "D"d2dc d2:|
fg| "D"a2ab afd2| A6 fg| a2ab agf2| "G"g6 ef|
    "A"gfef gfef| gagf e2ef| gagf edcB| "D"A6 fg|
    "D"a2ab afdB| A2AB A2A2| [F4d4] "C"[E4=c4]| "G"[G6B6] A2|
    "G"B2b2 b2ag| "D"f2a2 a2gf| "A"A2ef gfec| "D"d2 "fine"x|]
=c2 "D7"B2A2|:[K:G]"G"[G6B6] AB| "C"[E6c6] cB| "D"A2f2 f2ef| "G"gfga gedc|
"G"D2B2 B2AB| "C"E2c2 c2cB| "D"A2f2 f2ef|[1 "G"gfga g2dc :|[2 "G"g6 |]
% abcbook-tune_id 6298c279081920c022154d2a


% abcbook-boost 0
% abcbook-tablature 
% abcbook-transpose 
% abcbook-lastupdated 1654178426746
% abcbook-soundfonts 
% abcbook-repeats 1


